X:1
T: Oh! Dear Mother, My Toes Are Sore
C:
R:Jig
Q:180
K:G
M:6/8
L:1/16
d2|b4a2 g2f2e2|d2d2B2 G4A2|B2d2c2 B2A2G2|d2B2G2 A4d2|b4a2 g2f2e2|d2d2B2 G4c2|B2c2d2 A4d2|B4G2 G4d2|
b4a2 g2f2e2|d2d2B2 G4A2|B2d2c2 B2A2G2|d2B2G2 A4d2|b4a2 g2f2e2|d2d2B2 G4c2|B2c2d2 A4d2|B4G2 G4b2|
c'2b2a2 b4g2|f2g2a2 d4b2|c'2b2a2 b4g2|f2f2g2 a4b2|c'2b2a2 b4g2|f2g2a2 d4b2|c'2b2a2 g2f2e2|d2e2f2 g4b2|
c'2b2a2 b4g2|f2g2a2 d4b2|c'2b2a2 b4g2|f2f2g2 a4b2|c'2b2a2 b4g2|f2g2a2 d4b2|c'2b2a2 g2f2e2|d2e2f2 g4||
